X:262
T:Paddy on the Turnpike
M:4/4
L:1/8
R:reel
N:Learned from Chris Tuffley
K:Gdor
|:DGG^F G2GA|BGdG _eGdG|DFFE F2FG|AFcF dFcF|
DGG^F G2GA|BAGA Bcde|fefd cAFA|BGA^F G4:|
|:dgg^f g2ga|baga bagf|dffg f2fg|agfg agfe|
dgg^f g2ga|bagf dcde|fefd cAFA|BGA^F G4:|
